!!!OTL: DEUTSCHE WORTE HOER ICH WIEDER
!!!ARE: Europa, Mitteleuropa, Deutschland
!!!SCT: B0539
!!!YEM: Copyright 1995, estate of Helmut Schaffrath.
**kern
*ICvox
*Ivox
*M4/4
*k[f#c#]
*D:
{8.D
16D
=1
2F#
4D
12F#
12D
12F#
=2
2A
4F#}
{12A
12F#
12A
=3
4.d
8d
4c#
4d
=4
2e
4r}
{8.c#
16c#
=5
4e
4d
4B
4d
=6
4.c#
8d
4e}
{8.c#
16c#
=7
4e
4d
4B
8.f#
16e
=8
2c#
4r}
{8.A
16A
=9
[2A
8.A]
16A
12A
12E
12A
=10
2e
4r}
{8.c#
16c#
=11
[2c#
8.c#]
16c#
12c#
12A
12c#
=12
2.e
4r}
=13
{2f#
4d
4r
=14
2d
4B
4r}
=15
{8.A
16B
8.c#
16d
4f#
4e
=16
2d
4r}
{4A
=17
2f#
4d
4r
=18
2d
4B
4r}
=19
{8.A
16B
8.c#
16d
4f#
4e
=20
4d
8r
8d
4d
4d
=21
2.f#}
==
!!!AGN: Wander -, Heimat - Lied
!!!ONB: ESAC (Essen Associative Code) Database: BOEHME
!!!AMT: simple quadruple
!!!AIN: vox
!!!EED: Helmut Schaffrath
!!!EEV: 1.0
*-
